X:1
T:Title
%%score { 1 | ( 2 3 ) }
L:1/8
M:4/4
K:Eb
V:1 treble nm="Grand Piano"
V:2 bass 
V:3 bass 
V:1
 z4 z2[Q:1/4=100] [G,E]>[B,EG] | [B,GB]2 [EGB]>[DGB] [CFA]2 [B,EG]>[B,EG] | %2
 [B,CG]2 [A,CF]2[K:bass] [E,A,C]2 [A,CE]>[A,CE] | [F,B,D]2[K:treble] [B,DF]>[B,EG] [DFA]2 [DAc]2 | %4
 [EAc]4 [EGB]2 [B,EG]>[B,EG] | [CEA]2 [EAc]>[EBd] [Ece]2 [EBd]>[EAc] | [EB]2 [Be]2 [=Ae]2 c>c | %7
 d2 c>c B2 =A2 |[M:7/8] c- c3 [DB]3 |[M:1/4] B,>B, |[M:4/4] E2 E>E E2 E2 | %11
 E2 [A,B,D]4 [A,B,D]>[B,E] | [A,DF]2 [A,DF]>[DF] [A,DF]2 [G,CE]>[DF] | [B,EG]6 [B,EG]>[EG] | %14
 [CEA]2 [CEA]>[EA] [EGB]2 [EAc]>[Ac] |[M:9/8] [EGB]2 [GBe]- [GBe] [_G=Ae]2- [GAe][=A,E]>[EG] | %16
[M:4/4] [B,EG]2 [B,EB]>[CEA] [A,DF]2 [B,DG]2 |[M:3/4] [G,B,E]6 |] %18
V:2
 z4 z2 E,>E, | E,2 E,>E, E,2 E,>E, | A,,2 A,,2 A,,2 A,,>A,, | B,,2 B,,>B,, B,,2 B,,2 | %4
 E,4 E,2 E,>E, | A,2 A,>A, A,2 A,>A, | G,2 [_G,B,]2 [F,C]2[K:treble] [F,=A,F]>[F,A,F] | %7
 [B,F]2[K:bass] [E,G,E]>[E,G,E] [F,D]2 [F,C]2 |[M:7/8] [F,=A,E]- [F,A,E]3 [B,,B,]3 |[M:1/4] z2 | %10
[M:4/4] [E,G,B,]2 [G,B,]>[G,B,] [E,G,B,]2 [B,,G,B,]2 | [F,A,B,]2 F,,2 F,2 z z/ G,/ | %12
 B,,2 z z/ A,/ B,,2 z z/ B,/ | z4 z2 E,2 | A,2 z z/ C/ A,2 z z/ E/ |[M:9/8] z3 z3 z =B,,2 | %16
[M:4/4] B,,2 G,,>A,, B,,2 B,,,2 |[M:3/4] z2 B,,2 E,2 |] %18
V:3
 x8 | x8 | x8 | x8 | x8 | x8 | x6[K:treble] x2 | x2[K:bass] x6 |[M:7/8] x7 |[M:1/4] x2 | %10
[M:4/4] z2 B,,2 z4 | z4 z2 F,,2 | z2 B,,,2 z2 B,,,2 | E,,2 G,,>A,, B,,2 z z/ B,/ | %14
 z2 A,,2 z2 A,,2 |[M:9/8] [E,,E,]2 [_D,,_D,]- [D,,D,] [=B,,,=B,,]2- [B,,,B,,] z z/ =A,/ | %16
[M:4/4] x8 |[M:3/4] E,,6 |] %18

